icons/scalable/smartphone-light.svg

<svg width="24" height="25" viewBox="0 0 24 25" fill="none" xmlns="http://www.w3.org/2000/svg">
<path d="M17 2.64453H7C5.89543 2.64453 5 3.53996 5 4.64453V20.6445C5 21.7491 5.89543 22.6445 7 22.6445H17C18.1046 22.6445 19 21.7491 19 20.6445V4.64453C19 3.53996 18.1046 2.64453 17 2.64453Z" stroke="black" stroke-width="2" stroke-linecap="round" stroke-linejoin="round"/>
<path d="M12 18.6445H12.01" stroke="black" stroke-width="2" stroke-linecap="round" stroke-linejoin="round"/>
</svg>

<svg xmlns="http://www.w3.org/2000/svg" width="24" height="25" fill="none">
    <path stroke="#000" stroke-linecap="round" stroke-linejoin="round" stroke-width="2" d="M17 2.645H7a2 2 0 0 0-2 2v16a2 2 0 0 0 2 2h10a2 2 0 0 0 2-2v-16a2 2 0 0 0-2-2M12 18.645h.01"/>
</svg>
